lib/icons/like.svg

<svg width="16" height="14" viewBox="0 0 16 14" fill="none" xmlns="http://www.w3.org/2000/svg">
<path fill-rule="evenodd" clip-rule="evenodd" d="M8.00001 1.57878C6.86114 0.139801 4.87887 -0.277502 3.21795 0.175016C2.25096 0.438476 1.35193 1.00271 0.748666 1.87159C0.141101 2.74667 -0.140336 3.89341 0.0693098 5.26637C0.189122 6.05103 0.667135 6.82399 1.26559 7.54908C1.87185 8.28363 2.65106 9.02652 3.45155 9.74903C3.78267 10.0479 4.1139 10.3402 4.44058 10.6286L4.44076 10.6287C4.91813 11.0501 5.38577 11.4628 5.82908 11.8747C6.5717 12.5647 7.19129 13.2036 7.587 13.7814C7.68388 13.9229 7.84058 13.999 8.00001 13.9989C8.15943 13.999 8.31613 13.9229 8.41302 13.7814C8.80872 13.2036 9.42831 12.5647 10.1709 11.8747C10.6142 11.4628 11.0818 11.0501 11.5592 10.6288L11.5593 10.6287L11.5594 10.6286C11.8861 10.3403 12.2173 10.0479 12.5485 9.74903C13.349 9.02652 14.1282 8.28363 14.7344 7.54908C15.3329 6.82399 15.8109 6.05103 15.9307 5.26637C16.1404 3.89341 15.8589 2.74667 15.2513 1.87159C14.6481 1.00271 13.7491 0.438476 12.7821 0.175016C11.1212 -0.277502 9.13887 0.139801 8.00001 1.57878ZM8.00001 3.0096C7.81572 3.00964 7.63843 2.90739 7.55127 2.731C6.82607 1.2634 5.05468 0.711049 3.48082 1.13985C2.7071 1.35065 2.02077 1.7928 1.57009 2.44191C1.12371 3.08484 0.882596 3.96769 1.05785 5.11542L0.563581 5.1909L1.05785 5.11542C1.13605 5.62752 1.47203 6.22823 2.03683 6.91254C2.59381 7.58738 3.32708 8.28959 4.12158 9.00669C4.43353 9.28826 4.75856 9.57524 5.08407 9.86265C5.57241 10.2938 6.06183 10.726 6.50976 11.1421C7.06156 11.6548 7.58028 12.1699 8.00001 12.675C8.41974 12.1699 8.93846 11.6548 9.49026 11.1421C9.93819 10.726 10.4276 10.2938 10.9159 9.86265C11.2415 9.57524 11.5665 9.28826 11.8784 9.00669C12.6729 8.28959 13.4062 7.58738 13.9632 6.91254C14.528 6.22823 14.864 5.62752 14.9422 5.11542L15.4364 5.1909L14.9422 5.11542C15.1174 3.96769 14.8763 3.08484 14.4299 2.44191C13.9792 1.7928 13.2929 1.35065 12.5192 1.13985C10.9453 0.711049 9.17395 1.2634 8.44875 2.731C8.36159 2.90739 8.18429 3.00964 8.00001 3.0096Z" fill="#7A859E"/>
</svg>

<svg width="16" height="14" fill="none" xmlns="http://www.w3.org/2000/svg"><path fill-rule="evenodd" clip-rule="evenodd" d="M8 1.579C6.861.139 4.879-.278 3.218.175c-.967.263-1.866.828-2.47 1.697C.142 2.747-.14 3.893.07 5.266c.12.785.598 1.558 1.197 2.283.606.735 1.385 1.478 2.186 2.2.33.299.662.591.989.88.477.421.945.834 1.388 1.246.743.69 1.362 1.329 1.758 1.906a.5.5 0 0 0 .826 0c.396-.577 1.015-1.216 1.758-1.906.443-.412.91-.825 1.388-1.246.327-.289.658-.581.99-.88.8-.722 1.58-1.465 2.185-2.2.599-.725 1.077-1.498 1.197-2.283.21-1.373-.072-2.52-.68-3.394-.603-.87-1.502-1.434-2.469-1.697C11.122-.278 9.14.14 8 1.579Zm0 1.43a.5.5 0 0 1-.449-.278C6.826 1.263 5.055.711 3.481 1.14c-.774.21-1.46.653-1.91 1.302-.447.643-.688 1.526-.513 2.673l-.494.076.494-.076c.078.513.414 1.113.979 1.798.557.674 1.29 1.377 2.085 2.094.312.281.637.568.962.856.488.43.978.863 1.426 1.28.552.512 1.07 1.027 1.49 1.532.42-.505.938-1.02 1.49-1.533a77.58 77.58 0 0 1 1.426-1.28c.325-.287.65-.574.962-.855.795-.717 1.528-1.42 2.085-2.094.565-.685.901-1.285.98-1.798l.493.076-.494-.076c.175-1.147-.066-2.03-.512-2.673-.45-.65-1.137-1.091-1.91-1.302-1.575-.429-3.346.123-4.071 1.591A.5.5 0 0 1 8 3.01Z" fill="#7A859E"/></svg>
